image/social/facebook.svg

<?xml version="1.0" encoding="iso-8859-1"?>
<!-- Generator: Adobe Illustrator 18.0.0, SVG Export Plug-In . SVG Version: 6.00 Build 0)  -->
<!DOCTYPE svg PUBLIC "-//W3C//DTD SVG 1.1//EN" "http://www.w3.org/Graphics/SVG/1.1/DTD/svg11.dtd">
<svg version="1.1" id="Capa_1" xmlns="http://www.w3.org/2000/svg" xmlns:xlink="http://www.w3.org/1999/xlink" x="0px" y="0px"
	 viewBox="0 0 455.73 455.73" style="enable-background:new 0 0 455.73 455.73;" xml:space="preserve">
<path style="fill:#3A559F;" d="M0,0v455.73h242.704V279.691h-59.33v-71.864h59.33v-60.353c0-43.893,35.582-79.475,79.475-79.475
	h62.025v64.622h-44.382c-13.947,0-25.254,11.307-25.254,25.254v49.953h68.521l-9.47,71.864h-59.051V455.73H455.73V0H0z"/>
<g>
</g>
<g>
</g>
<g>
</g>
<g>
</g>
<g>
</g>
<g>
</g>
<g>
</g>
<g>
</g>
<g>
</g>
<g>
</g>
<g>
</g>
<g>
</g>
<g>
</g>
<g>
</g>
<g>
</g>
</svg>

<svg width="456" height="456" viewBox="0 0 456 456" fill="none" xmlns="http://www.w3.org/2000/svg">
<g clip-path="url(#clip0)">
<rect width="455.73" height="455.73" fill="white"/>
<path d="M0 0V455.73H242.704V279.691H183.374V207.827H242.704V147.474C242.704 103.581 278.286 67.999 322.179 67.999H384.204V132.621H339.822C325.875 132.621 314.568 143.928 314.568 157.875V207.828H383.089L373.619 279.692H314.568V455.73H455.73V0H0Z" fill="#3A559F"/>
</g>
<defs>
<clipPath id="clip0">
<rect width="455.73" height="455.73" fill="white"/>
</clipPath>
</defs>
</svg>
